src/svg/resizenortheastsouthwest.svg

<?xml version="1.0" encoding="UTF-8" standalone="no"?>
<svg width="35px" height="35px" viewBox="0 0 35 35" version="1.1" xmlns="http://www.w3.org/2000/svg" xmlns:xlink="http://www.w3.org/1999/xlink">
    <defs></defs>
    <g id="Page-1" stroke="none" stroke-width="1" fill="none" fill-rule="evenodd">
        <g id="resizenortheastsouthwest">
            <g id="bg-copy" fill="#FFFFFF" opacity="0.00999999978">
                <rect id="bg" x="0" y="0" width="35" height="35"></rect>
            </g>
            <path d="M19.7432,17.0869 L15.6712,21.1549 L18.5002,23.9829 L10.0272,23.9699 L10.0142,15.4999 L12.8552,18.3419 L16.9302,14.2739 L18.3442,12.8589 L15.5002,10.0169 L23.9862,10.0169 L23.9862,18.5009 L21.1562,15.6739 L19.7432,17.0869 Z" id="resize-border" fill="#FFFFFF"></path>
            <path d="M18.6826,16.7334 L14.2556,21.1574 L16.0836,22.9854 L11.0276,22.9694 L11.0136,17.9154 L12.8556,19.7564 L17.2836,15.3344 L19.7576,12.8594 L17.9136,11.0164 L22.9866,11.0164 L22.9866,16.0874 L21.1566,14.2594 L18.6826,16.7334 Z" id="resize" fill="#000000"></path>
        </g>
    </g>
</svg>

<svg height="35" viewBox="0 0 35 35" width="35" xmlns="http://www.w3.org/2000/svg"><g fill="none" fill-rule="evenodd"><path d="m19.7432 17.0869-4.072 4.068 2.829 2.828-8.473-.013-.013-8.47 2.841 2.842 4.075-4.068 1.414-1.415-2.844-2.842h8.486v8.484l-2.83-2.827z" fill="#fff"/><path d="m18.6826 16.7334-4.427 4.424 1.828 1.828-5.056-.016-.014-5.054 1.842 1.841 4.428-4.422 2.474-2.475-1.844-1.843h5.073v5.071l-1.83-1.828z" fill="#000"/></g></svg>
